2021/src/assets/icons/social/linkedin.svg

<svg width="24" height="24" viewBox="0 0 24 24" fill="none" xmlns="http://www.w3.org/2000/svg">
<g clip-path="url(#clip0)">
<path d="M18.59 24.0001C18.693 24.0001 23.352 23.9991 23.25 23.9991C23.664 23.9991 24 23.6631 24 23.2491C23.65 15.3921 25.842 7.10107 17.662 7.10107C16.089 7.10107 14.836 7.63807 13.933 8.34807C13.933 6.88707 12.354 7.69507 8.709 7.47807C8.295 7.47807 7.959 7.81407 7.959 8.22807C8.261 22.3941 7.285 23.9991 8.709 23.9991H13.369C14.722 23.9991 13.861 22.0911 14.119 15.8111C14.119 13.2171 14.869 12.7091 16.165 12.7091C17.599 12.7091 17.84 13.7051 17.84 15.9371C18.097 22.1041 17.242 24.0001 18.59 24.0001ZM16.165 11.2091C11.674 11.2091 12.619 16.1471 12.619 22.4991H9.459V8.97807H12.433V10.2761C12.433 10.9961 13.53 11.3501 13.912 10.6261C14.404 9.69208 15.682 8.60107 17.662 8.60107C21.189 8.60107 22.5 10.3341 22.5 14.9971V22.5001H19.34C19.34 15.3561 20.096 11.2091 16.165 11.2091Z" fill="#0E3256"/>
<path d="M1.12199 7.47871C-0.298008 7.47871 0.673992 9.06371 0.371992 23.2497C0.371992 23.6637 0.707992 23.9997 1.12199 23.9997H5.78699C7.20699 23.9997 6.23499 22.4147 6.53699 8.22871C6.53699 6.93371 4.65599 7.69771 1.12199 7.47871V7.47871ZM5.03699 22.4997H1.87199V8.97871H5.03699V22.4997Z" fill="#0E3256"/>
<path d="M3.45203 0C-1.12397 0 -1.09597 6.929 3.45203 6.929C7.99703 6.929 8.03303 0 3.45203 0ZM3.45203 5.429C0.884026 5.429 0.860026 1.5 3.45203 1.5C6.04903 1.5 6.01603 5.429 3.45203 5.429Z" fill="#0E3256"/>
</g>
<defs>
<clipPath id="clip0">
<rect width="24" height="24" fill="#0E3256"/>
</clipPath>
</defs>
</svg>

<?xml version="1.0" encoding="UTF-8"?>
<svg fill="none" viewBox="0 0 24 24" xmlns="http://www.w3.org/2000/svg">
<g clip-path="url(#a)" fill="#0E3256">
<path d="m18.59 24c0.103 0 4.762-1e-3 4.66-1e-3 0.414 0 0.75-0.336 0.75-0.75-0.35-7.857 1.842-16.148-6.338-16.148-1.573 0-2.826 0.537-3.729 1.247 0-1.461-1.579-0.653-5.224-0.87-0.414 0-0.75 0.336-0.75 0.75 0.302 14.166-0.674 15.771 0.75 15.771h4.66c1.353 0 0.492-1.908 0.75-8.188 0-2.594 0.75-3.102 2.046-3.102 1.434 0 1.675 0.996 1.675 3.228 0.257 6.167-0.598 8.063 0.75 8.063zm-2.425-12.791c-4.491 0-3.546 4.938-3.546 11.29h-3.16v-13.521h2.974v1.298c0 0.72 1.097 1.074 1.479 0.35 0.492-0.93402 1.77-2.025 3.75-2.025 3.527 0 4.838 1.733 4.838 6.396v7.503h-3.16c0-7.144 0.756-11.291-3.175-11.291z"/>
<path d="m1.122 7.4787c-1.42 0-0.448 1.585-0.75 15.771 0 0.414 0.336 0.75 0.75 0.75h4.665c1.42 0 0.448-1.585 0.75-15.771 0-1.295-1.881-0.531-5.415-0.75zm3.915 15.021h-3.165v-13.521h3.165v13.521z"/>
<path d="m3.452 0c-4.576 0-4.548 6.929 0 6.929 4.545 0 4.581-6.929 0-6.929zm0 5.429c-2.568 0-2.592-3.929 0-3.929 2.597 0 2.564 3.929 0 3.929z"/>
</g>
<defs>
<clipPath id="a">
<rect width="24" height="24" fill="#0E3256"/>
</clipPath>
</defs>
</svg>
